assets/img/icons/verified.svg

<svg width="16" height="16" viewBox="0 0 16 16" fill="none" xmlns="http://www.w3.org/2000/svg">
<g clip-path="url(#clip0_4092_73)">
<path fill-rule="evenodd" clip-rule="evenodd" d="M7.30775 0.340852C7.47818 0.120301 7.73883 0 8.01953 0C8.30023 0 8.56089 0.130326 8.73131 0.340852L9.51327 1.35338C9.57342 1.43358 9.66364 1.49373 9.76389 1.51378C9.86414 1.54386 9.96439 1.53383 10.0646 1.49373L11.2476 1.01253C11.5083 0.912281 11.789 0.932331 12.0296 1.06266C12.2702 1.20301 12.4306 1.44361 12.4707 1.71429L12.6511 2.97744C12.6611 3.07769 12.7113 3.16792 12.7814 3.2381C12.8516 3.30827 12.9418 3.3584 13.0421 3.36842L14.3052 3.54887C14.5759 3.58897 14.8165 3.74937 14.9569 3.98997C15.0972 4.23058 15.1173 4.5213 15.007 4.77193L14.5258 5.95489C14.4857 6.04511 14.4857 6.15539 14.5057 6.25564C14.5358 6.35589 14.5859 6.43609 14.6661 6.50627L15.6787 7.29825C15.8992 7.46867 16.0195 7.72932 16.0195 8.01002C16.0195 8.29073 15.8892 8.55138 15.6787 8.7218L14.6661 9.50376C14.5859 9.56391 14.5258 9.65413 14.5057 9.75439C14.4757 9.85464 14.4857 9.95489 14.5258 10.0551L15.007 11.2381C15.1073 11.4987 15.0872 11.7794 14.9569 12.02C14.8165 12.2607 14.5759 12.4211 14.3052 12.4612L13.0421 12.6416C12.9418 12.6516 12.8516 12.7018 12.7814 12.7719C12.7113 12.8421 12.6611 12.9323 12.6511 13.0326L12.4707 14.3058C12.4306 14.5764 12.2702 14.817 12.0296 14.9574C11.789 15.0977 11.4982 15.1178 11.2476 15.0075L10.0646 14.5263C9.97442 14.4862 9.86414 14.4862 9.76389 14.5063C9.66364 14.5363 9.58344 14.5865 9.51327 14.6667L8.73131 15.6792C8.56089 15.8997 8.30023 16.02 8.01953 16.02C7.73883 16.02 7.47818 15.8897 7.30775 15.6792L6.5258 14.6667C6.46565 14.5865 6.37542 14.5263 6.27517 14.5063C6.17492 14.4762 6.07467 14.4862 5.97442 14.5263L4.79146 15.0075C4.53081 15.1078 4.25011 15.0877 4.00951 14.9574C3.76891 14.817 3.6085 14.5764 3.5684 14.3058L3.38795 13.0326C3.37793 12.9323 3.3278 12.8421 3.25763 12.7719C3.18745 12.7018 3.09723 12.6516 2.99698 12.6416L1.73382 12.4612C1.46314 12.4211 1.22254 12.2607 1.08219 12.02C0.941837 11.7794 0.921787 11.4887 1.03206 11.2381L1.51327 10.0551C1.55337 9.96491 1.55337 9.85464 1.53332 9.75439C1.50324 9.65413 1.45312 9.57393 1.37291 9.50376L0.360383 8.7218C0.139832 8.55138 0.0195312 8.29073 0.0195312 8.01002C0.0195312 7.72932 0.149857 7.46867 0.360383 7.29825L1.37291 6.50627C1.45312 6.44611 1.51327 6.35589 1.53332 6.25564C1.56339 6.15539 1.55337 6.05514 1.51327 5.95489L1.03206 4.77193C0.931812 4.51128 0.951862 4.23058 1.08219 3.98997C1.22254 3.74937 1.46314 3.58897 1.73382 3.54887L2.99698 3.36842C3.09723 3.3584 3.18745 3.30827 3.25763 3.2381C3.3278 3.16792 3.37793 3.07769 3.38795 2.97744L3.5684 1.71429C3.6085 1.44361 3.76891 1.20301 4.00951 1.06266C4.25011 0.922306 4.54084 0.902256 4.79146 1.01253L5.97442 1.49373C6.06464 1.53383 6.17492 1.53383 6.27517 1.51378C6.37542 1.48371 6.45562 1.43358 6.5258 1.35338L7.30775 0.340852Z" fill="#4285F4"/>
<path fill-rule="evenodd" clip-rule="evenodd" d="M7.759 8.07002L10.2552 5.56376C10.4457 5.37328 10.7465 5.37328 10.9269 5.56376L11.5986 6.23543C11.7891 6.42591 11.7891 6.72666 11.5986 6.90711L8.27028 10.2455C8.27028 10.2455 8.25023 10.2755 8.24021 10.2856L7.56853 10.9572C7.4783 11.0475 7.34798 11.0976 7.22768 11.0976C7.10738 11.0976 6.98707 11.0475 6.88682 10.9572L6.21515 10.2856C6.21515 10.2856 6.1951 10.2655 6.18507 10.2455L4.44071 8.5011C4.25023 8.31062 4.25023 8.0199 4.44071 7.82942L5.11239 7.15774C5.30286 6.96726 5.60362 6.96726 5.78407 7.15774L7.10738 8.48105L7.22768 8.60135L8.58106 9.93468L7.759 8.07002Z" fill="white"/>
</g>
<defs>
<clipPath id="clip0_4092_73">
<rect width="16" height="16" fill="white"/>
</clipPath>
</defs>
</svg>

<?xml version="1.0" encoding="UTF-8"?>
<svg id="Layer_2" data-name="Layer 2" xmlns="http://www.w3.org/2000/svg" viewBox="0 0 16 16">
	<defs>
	<style>
	.cls-1 {
		fill: #4285f4;
	}

	.cls-1, .cls-2 {
		fill-rule: evenodd;
		stroke-width: 0px;
	}

	.cls-2 {
		fill: #fff;
	}
	</style>
	</defs>
	<g id="Layer_1-2" data-name="Layer 1">
		<g>
			<path class="cls-1" d="M7.29.34c.17-.22.43-.34.71-.34s.54.13.71.34l.78,1.01c.06.08.15.14.25.16.1.03.2.02.3-.02l1.18-.48c.26-.1.54-.08.78.05.24.14.4.38.44.65l.18,1.26c.01.1.06.19.13.26.07.07.16.12.26.13l1.26.18c.27.04.51.2.65.44.14.24.16.53.05.78l-.48,1.18c-.04.09-.04.2-.02.3.03.1.08.18.16.25l1.01.79c.22.17.34.43.34.71s-.13.54-.34.71l-1.01.78c-.08.06-.14.15-.16.25-.03.1-.02.2.02.3l.48,1.18c.1.26.08.54-.05.78-.14.24-.38.4-.65.44l-1.26.18c-.1.01-.19.06-.26.13s-.12.16-.13.26l-.18,1.27c-.04.27-.2.51-.44.65-.24.14-.53.16-.78.05l-1.18-.48c-.09-.04-.2-.04-.3-.02-.1.03-.18.08-.25.16l-.78,1.01c-.17.22-.43.34-.71.34s-.54-.13-.71-.34l-.78-1.01c-.06-.08-.15-.14-.25-.16-.1-.03-.2-.02-.3.02l-1.18.48c-.26.1-.54.08-.78-.05-.24-.14-.4-.38-.44-.65l-.18-1.27c-.01-.1-.06-.19-.13-.26-.07-.07-.16-.12-.26-.13l-1.26-.18c-.27-.04-.51-.2-.65-.44-.14-.24-.16-.53-.05-.78l.48-1.18c.04-.09.04-.2.02-.3-.03-.1-.08-.18-.16-.25l-1.01-.78c-.22-.17-.34-.43-.34-.71s.13-.54.34-.71l1.01-.79c.08-.06.14-.15.16-.25.03-.1.02-.2-.02-.3l-.48-1.18c-.1-.26-.08-.54.05-.78.14-.24.38-.4.65-.44l1.26-.18c.1-.01.19-.06.26-.13.07-.07.12-.16.13-.26l.18-1.26c.04-.27.2-.51.44-.65.24-.14.53-.16.78-.05l1.18.48c.09.04.2.04.3.02.1-.03.18-.08.25-.16l.78-1.01Z"/>
			<path class="cls-2" d="M7.74,8.05l2.49-2.5c.19-.19.49-.19.67,0l.67.67c.19.19.19.49,0,.67l-3.32,3.33s-.02.03-.03.04l-.67.67c-.09.09-.22.14-.34.14s-.24-.05-.34-.14l-.67-.67s-.02-.02-.03-.04l-1.74-1.74c-.19-.19-.19-.48,0-.67l.67-.67c.19-.19.49-.19.67,0l1.32,1.32h0s.12.12.12.12h0s1.35,1.33,1.35,1.33l-.82-1.86Z"/>
		</g>
	</g>
</svg>
